X:43
T:Polka du Morvan
C:trad.
A:Morvan
O:France
Z:S. Piron
M:2/4
L:1/8
Q:1/4=120
K:C
g2g2|g/2a/2g/2f/2e2|cece|ed/2e/2f2|f2f2|f/2g/2f/2e/2d2|BdBd|1dc/2d/2e2:|2dc/2B/2c2|
|:ceg2|fdB2|Bda2|gec2|ceg2|fdB2|BdBd|cec2:||
